Icons/com_soundcloud_android.svg

<svg viewBox="0 0 48 48" xmlns:xlink="http://www.w3.org/1999/xlink">
 <defs>
  <linearGradient id="0">
   <stop stop-opacity="0"/>
   <stop offset="1"/>
  </linearGradient>
  <linearGradient xlink:href="#0" id="1" gradientUnits="userSpaceOnUse" gradientTransform="translate(4e-7,-48)" y1="47" x2="0" y2="1"/>
  <clipPath id="2">
   <g transform="translate(0,-1004.3622)">
    <rect rx="4" y="1005.36" x="1" height="46" width="46" fill="#1890d0"/>
   </g>
  </clipPath>
  <clipPath id="3">
   <g transform="translate(0,-1004.3622)">
    <rect rx="4" y="1005.36" x="1" height="46" width="46" fill="#1890d0"/>
   </g>
  </clipPath>
 </defs>
 <g>
  <g transform="translate(0,-1004.3622)">
   <path d="m 5,1006.3622 c -2.216,0 -4,1.784 -4,4 l 0,37.25 c 0,2.216 1.784,4 4,4 l 38,0 c 2.216,0 4,-1.784 4,-4 l 0,-37.25 c 0,-2.216 -1.784,-4 -4,-4 l -38,0 z m -4,41.5 0,0.5 c 0,2.216 1.784,4 4,4 l 38,0 c 2.216,0 4,-1.784 4,-4 l 0,-0.5 c 0,2.216 -1.784,4 -4,4 l -38,0 c -2.216,0 -4,-1.784 -4,-4 z" opacity="0.02"/>
   <path d="m 1,1047.6122 0,0.25 c 0,2.216 1.784,4 4,4 l 38,0 c 2.216,0 4,-1.784 4,-4 l 0,-0.25 c 0,2.216 -1.784,4 -4,4 l -38,0 c -2.216,0 -4,-1.784 -4,-4 z" opacity="0.05"/>
   <rect width="46" height="46" x="1" y="1005.61" rx="4" opacity="0.1"/>
  </g>
 </g>
 <g>
  <g transform="translate(0,-1004.3622)">
   <rect rx="4" y="1005.36" x="1" height="46" width="46" fill="#f96f23"/>
  </g>
 </g>
 <g>
  <rect transform="scale(1,-1)" width="46" height="46" x="1" y="-46.998" rx="4" opacity="0.1" fill="url(#1)"/>
 </g>
 <g>
  <g clip-path="url(#2)">
   <g opacity="0.1">
    <g>
     <path d="M 11.445312 24.027344 C 11.382812 24.027344 11.332031 24.078125 11.324219 24.15625 L 11.105469 25.945312 L 11.324219 27.707031 C 11.332031 27.78125 11.382812 27.832031 11.445312 27.832031 C 11.503906 27.832031 11.554688 27.78125 11.5625 27.707031 L 11.824219 25.945312 L 11.5625 24.152344 C 11.554688 24.078125 11.445312 23.96875 11.445312 24.027344 Z M 15.445312 29.605469 C 15.445312 29.714844 15.640625 29.515625 15.648438 29.394531 L 15.929688 25.949219 L 15.648438 22.671875 C 15.640625 22.550781 15.554688 22.460938 15.445312 22.460938 C 15.339844 22.460938 15.269531 22.554688 15.246094 22.671875 L 14.996094 25.949219 L 15.246094 29.394531 C 15.253906 29.515625 15.339844 29.605469 15.445312 29.605469 Z M 13.445312 29.417969 C 13.523438 29.417969 13.585938 29.351562 13.59375 29.261719 L 13.914062 25.949219 L 13.59375 22.511719 C 13.585938 22.421875 13.523438 22.355469 13.445312 22.355469 C 13.367188 22.355469 13.300781 22.421875 13.292969 22.511719 C 13.292969 22.511719 13.015625 25.949219 13.015625 25.949219 L 13.292969 29.257812 C 13.300781 29.351562 13.445312 29.496094 13.445312 29.417969 Z M 21.453125 18.6875 C 21.257812 18.6875 21.101562 18.855469 21.097656 19.070312 L 20.941406 25.953125 L 21.097656 29.265625 C 21.101562 29.476562 21.257812 29.644531 21.453125 29.644531 C 21.648438 29.644531 22.023438 29.265625 21.808594 29.265625 L 21.988281 25.949219 L 21.808594 19.066406 C 21.804688 18.851562 21.453125 18.492188 21.453125 18.683594 Z M 17.449219 29.640625 C 17.585938 29.640625 17.695312 29.523438 17.703125 29.371094 L 17.949219 25.953125 L 17.703125 19.402344 C 17.695312 19.253906 17.585938 19.136719 17.449219 19.136719 C 17.3125 19.136719 17.203125 19.253906 17.195312 19.402344 C 17.195312 19.40625 16.976562 25.953125 16.976562 25.953125 L 17.195312 29.375 C 17.207031 29.523438 17.3125 29.640625 17.449219 29.640625 Z M 19.753906 29.675781 L 19.96875 26.3125 L 19.753906 18.976562 C 19.75 18.796875 19.617188 18.652344 19.453125 18.652344 C 19.285156 18.652344 19.152344 18.796875 19.148438 18.976562 L 18.960938 26.3125 L 19.148438 29.675781 C 19.160156 29.855469 19.285156 30 19.453125 30 C 19.617188 30 19.75 29.859375 19.757812 29.675781 Z M 35.273438 21.726562 C 34.769531 21.726562 34.285156 21.835938 33.847656 22.03125 C 33.554688 18.457031 30.765625 15.652344 27.363281 15.652344 C 26.53125 15.652344 25.71875 15.828125 25.003906 16.128906 C 24.722656 16.242188 24.648438 16.363281 24.648438 16.59375 L 24.648438 29.183594 C 24.648438 29.425781 24.824219 29.628906 25.046875 29.652344 C 25.054688 29.652344 35.207031 29.652344 35.273438 29.652344 C 37.3125 29.652344 38.964844 27.875 38.964844 25.6875 C 38.964844 23.496094 37.3125 21.71875 35.273438 21.71875 Z M 23.457031 16.582031 C 23.234375 16.582031 23.054688 16.777344 23.050781 17.019531 L 22.882812 25.953125 L 23.050781 29.199219 C 23.054688 29.433594 23.234375 29.628906 23.457031 29.628906 C 23.679688 29.628906 23.859375 29.433594 23.863281 29.195312 L 24.042969 25.949219 L 23.863281 17.015625 C 23.859375 16.773438 23.679688 16.578125 23.457031 16.578125 Z M 23.457031 16.582031 "/>
    </g>
   </g>
  </g>
 </g>
 <g>
  <g clip-path="url(#3)">
   <g transform="translate(0,-1)">
    <g>
     <path d="M 11.445312 24.027344 C 11.382812 24.027344 11.332031 24.078125 11.324219 24.15625 L 11.105469 25.945312 L 11.324219 27.707031 C 11.332031 27.78125 11.382812 27.832031 11.445312 27.832031 C 11.503906 27.832031 11.554688 27.78125 11.5625 27.707031 L 11.824219 25.945312 L 11.5625 24.152344 C 11.554688 24.078125 11.445312 23.96875 11.445312 24.027344 Z M 15.445312 29.605469 C 15.445312 29.714844 15.640625 29.515625 15.648438 29.394531 L 15.929688 25.949219 L 15.648438 22.671875 C 15.640625 22.550781 15.554688 22.460938 15.445312 22.460938 C 15.339844 22.460938 15.269531 22.554688 15.246094 22.671875 L 14.996094 25.949219 L 15.246094 29.394531 C 15.253906 29.515625 15.339844 29.605469 15.445312 29.605469 Z M 13.445312 29.417969 C 13.523438 29.417969 13.585938 29.351562 13.59375 29.261719 L 13.914062 25.949219 L 13.59375 22.511719 C 13.585938 22.421875 13.523438 22.355469 13.445312 22.355469 C 13.367188 22.355469 13.300781 22.421875 13.292969 22.511719 C 13.292969 22.511719 13.015625 25.949219 13.015625 25.949219 L 13.292969 29.257812 C 13.300781 29.351562 13.445312 29.496094 13.445312 29.417969 Z M 21.453125 18.6875 C 21.257812 18.6875 21.101562 18.855469 21.097656 19.070312 L 20.941406 25.953125 L 21.097656 29.265625 C 21.101562 29.476562 21.257812 29.644531 21.453125 29.644531 C 21.648438 29.644531 22.023438 29.265625 21.808594 29.265625 L 21.988281 25.949219 L 21.808594 19.066406 C 21.804688 18.851562 21.453125 18.492188 21.453125 18.683594 Z M 17.449219 29.640625 C 17.585938 29.640625 17.695312 29.523438 17.703125 29.371094 L 17.949219 25.953125 L 17.703125 19.402344 C 17.695312 19.253906 17.585938 19.136719 17.449219 19.136719 C 17.3125 19.136719 17.203125 19.253906 17.195312 19.402344 C 17.195312 19.40625 16.976562 25.953125 16.976562 25.953125 L 17.195312 29.375 C 17.207031 29.523438 17.3125 29.640625 17.449219 29.640625 Z M 19.753906 29.675781 L 19.96875 26.3125 L 19.753906 18.976562 C 19.75 18.796875 19.617188 18.652344 19.453125 18.652344 C 19.285156 18.652344 19.152344 18.796875 19.148438 18.976562 L 18.960938 26.3125 L 19.148438 29.675781 C 19.160156 29.855469 19.285156 30 19.453125 30 C 19.617188 30 19.75 29.859375 19.757812 29.675781 Z M 35.273438 21.726562 C 34.769531 21.726562 34.285156 21.835938 33.847656 22.03125 C 33.554688 18.457031 30.765625 15.652344 27.363281 15.652344 C 26.53125 15.652344 25.71875 15.828125 25.003906 16.128906 C 24.722656 16.242188 24.648438 16.363281 24.648438 16.59375 L 24.648438 29.183594 C 24.648438 29.425781 24.824219 29.628906 25.046875 29.652344 C 25.054688 29.652344 35.207031 29.652344 35.273438 29.652344 C 37.3125 29.652344 38.964844 27.875 38.964844 25.6875 C 38.964844 23.496094 37.3125 21.71875 35.273438 21.71875 Z M 23.457031 16.582031 C 23.234375 16.582031 23.054688 16.777344 23.050781 17.019531 L 22.882812 25.953125 L 23.050781 29.199219 C 23.054688 29.433594 23.234375 29.628906 23.457031 29.628906 C 23.679688 29.628906 23.859375 29.433594 23.863281 29.195312 L 24.042969 25.949219 L 23.863281 17.015625 C 23.859375 16.773438 23.679688 16.578125 23.457031 16.578125 Z M 23.457031 16.582031 " fill="#f9f9f9"/>
    </g>
   </g>
  </g>
 </g>
 <g>
  <g transform="translate(0,-1004.3622)">
   <path d="m 1,1043.3622 0,4 c 0,2.216 1.784,4 4,4 l 38,0 c 2.216,0 4,-1.784 4,-4 l 0,-4 c 0,2.216 -1.784,4 -4,4 l -38,0 c -2.216,0 -4,-1.784 -4,-4 z" opacity="0.1"/>
  </g>
 </g>
</svg>

<svg viewBox="0 0 48 48"><defs><linearGradient id="linearGradient3764" x1="1" x2="47" gradientUnits="userSpaceOnUse" gradientTransform="translate(-48.000001,0.00221467)"><stop stop-color="#f86210" stop-opacity="1"/><stop offset="1" stop-color="#f96f23" stop-opacity="1"/></linearGradient><clipPath id="clipPath-161476245"><g transform="translate(0,-1004.3622)"><rect rx="4" y="1005.36" x="1" height="46" width="46" fill="#1890d0"/></g></clipPath><clipPath id="clipPath-175324796"><g transform="translate(0,-1004.3622)"><rect rx="4" y="1005.36" x="1" height="46" width="46" fill="#1890d0"/></g></clipPath></defs><g><path d="m 1 43 l 0 0.25 c 0 2.216 1.784 4 4 4 l 38 0 c 2.216 0 4 -1.784 4 -4 l 0 -0.25 c 0 2.216 -1.784 4 -4 4 l -38 0 c -2.216 0 -4 -1.784 -4 -4 z m 0 0.5 l 0 0.5 c 0 2.216 1.784 4 4 4 l 38 0 c 2.216 0 4 -1.784 4 -4 l 0 -0.5 c 0 2.216 -1.784 4 -4 4 l -38 0 c -2.216 0 -4 -1.784 -4 -4 z" opacity="0.02"/><path d="m 1 43.25 l 0 0.25 c 0 2.216 1.784 4 4 4 l 38 0 c 2.216 0 4 -1.784 4 -4 l 0 -0.25 c 0 2.216 -1.784 4 -4 4 l -38 0 c -2.216 0 -4 -1.784 -4 -4 z" opacity="0.05"/><path d="m 1 43 l 0 0.25 c 0 2.216 1.784 4 4 4 l 38 0 c 2.216 0 4 -1.784 4 -4 l 0 -0.25 c 0 2.216 -1.784 4 -4 4 l -38 0 c -2.216 0 -4 -1.784 -4 -4 z" opacity="0.1"/></g><g><rect width="46" height="46" x="-47" y="1" rx="4" transform="matrix(0,-1,1,0,0,0)" fill="url(#linearGradient3764)" fill-opacity="1"/></g><g><g clip-path="url(#clipPath-161476245)"><g opacity="0.1"><!-- color: #f96f23 --><g><path d="m 11.445 24.03 c -0.063 0 -0.113 0.051 -0.121 0.129 l -0.219 1.789 l 0.219 1.762 c 0.008 0.074 0.059 0.125 0.121 0.125 c 0.059 0 0.109 -0.051 0.117 -0.125 l 0.262 -1.762 l -0.262 -1.793 c -0.008 -0.074 -0.117 -0.184 -0.117 -0.125 m 4 5.578 c 0 0.109 0.195 -0.09 0.203 -0.211 l 0.281 -3.445 l -0.281 -3.277 c -0.008 -0.121 -0.094 -0.211 -0.203 -0.211 c -0.105 0 -0.176 0.094 -0.199 0.211 l -0.25 3.277 l 0.25 3.445 c 0.008 0.121 0.094 0.211 0.199 0.211 m -2 -0.188 c 0.078 0 0.141 -0.066 0.148 -0.156 l 0.32 -3.313 l -0.32 -3.438 c -0.008 -0.09 -0.07 -0.156 -0.148 -0.156 c -0.078 0 -0.145 0.066 -0.152 0.156 c 0 0 -0.277 3.438 -0.277 3.438 l 0.277 3.309 c 0.008 0.094 0.152 0.238 0.152 0.16 m 8.01 -10.73 c -0.195 0 -0.352 0.168 -0.355 0.383 l -0.156 6.883 l 0.156 3.313 c 0.004 0.211 0.16 0.379 0.355 0.379 c 0.195 0 0.57 -0.379 0.355 -0.379 l 0.18 -3.316 l -0.18 -6.883 c -0.004 -0.215 -0.355 -0.574 -0.355 -0.383 m -4 10.957 c 0.137 0 0.246 -0.117 0.254 -0.27 l 0.246 -3.418 l -0.246 -6.551 c -0.008 -0.148 -0.117 -0.266 -0.254 -0.266 c -0.137 0 -0.246 0.117 -0.254 0.266 c 0 0.004 -0.219 6.551 -0.219 6.551 l 0.219 3.422 c 0.012 0.148 0.117 0.266 0.254 0.266 m 2.305 0.035 l 0.215 -3.363 l -0.215 -7.336 c -0.004 -0.18 -0.137 -0.324 -0.301 -0.324 c -0.168 0 -0.301 0.145 -0.305 0.324 l -0.188 7.336 l 0.188 3.363 c 0.012 0.18 0.137 0.324 0.305 0.324 c 0.164 0 0.297 -0.141 0.305 -0.324 m 15.516 -7.949 c -0.504 0 -0.988 0.109 -1.426 0.305 c -0.293 -3.574 -3.082 -6.379 -6.484 -6.379 c -0.832 0 -1.645 0.176 -2.359 0.477 c -0.281 0.113 -0.355 0.234 -0.355 0.465 l 0 12.59 c 0 0.242 0.176 0.445 0.398 0.469 c 0.008 0 10.16 0 10.227 0 c 2.039 0 3.691 -1.777 3.691 -3.965 c 0 -2.191 -1.652 -3.969 -3.691 -3.969 m -11.816 -5.137 c -0.223 0 -0.402 0.195 -0.406 0.438 l -0.168 8.934 l 0.168 3.246 c 0.004 0.234 0.184 0.43 0.406 0.43 c 0.223 0 0.402 -0.195 0.406 -0.434 l 0.18 -3.246 l -0.18 -8.934 c -0.004 -0.242 -0.184 -0.438 -0.406 -0.438 m 0 0.004" fill="#000"/></g></g></g></g><g><g clip-path="url(#clipPath-175324796)"><g transform="translate(0,-1)"><!-- color: #f96f23 --><g><path d="m 11.445 24.03 c -0.063 0 -0.113 0.051 -0.121 0.129 l -0.219 1.789 l 0.219 1.762 c 0.008 0.074 0.059 0.125 0.121 0.125 c 0.059 0 0.109 -0.051 0.117 -0.125 l 0.262 -1.762 l -0.262 -1.793 c -0.008 -0.074 -0.117 -0.184 -0.117 -0.125 m 4 5.578 c 0 0.109 0.195 -0.09 0.203 -0.211 l 0.281 -3.445 l -0.281 -3.277 c -0.008 -0.121 -0.094 -0.211 -0.203 -0.211 c -0.105 0 -0.176 0.094 -0.199 0.211 l -0.25 3.277 l 0.25 3.445 c 0.008 0.121 0.094 0.211 0.199 0.211 m -2 -0.188 c 0.078 0 0.141 -0.066 0.148 -0.156 l 0.32 -3.313 l -0.32 -3.438 c -0.008 -0.09 -0.07 -0.156 -0.148 -0.156 c -0.078 0 -0.145 0.066 -0.152 0.156 c 0 0 -0.277 3.438 -0.277 3.438 l 0.277 3.309 c 0.008 0.094 0.152 0.238 0.152 0.16 m 8.01 -10.73 c -0.195 0 -0.352 0.168 -0.355 0.383 l -0.156 6.883 l 0.156 3.313 c 0.004 0.211 0.16 0.379 0.355 0.379 c 0.195 0 0.57 -0.379 0.355 -0.379 l 0.18 -3.316 l -0.18 -6.883 c -0.004 -0.215 -0.355 -0.574 -0.355 -0.383 m -4 10.957 c 0.137 0 0.246 -0.117 0.254 -0.27 l 0.246 -3.418 l -0.246 -6.551 c -0.008 -0.148 -0.117 -0.266 -0.254 -0.266 c -0.137 0 -0.246 0.117 -0.254 0.266 c 0 0.004 -0.219 6.551 -0.219 6.551 l 0.219 3.422 c 0.012 0.148 0.117 0.266 0.254 0.266 m 2.305 0.035 l 0.215 -3.363 l -0.215 -7.336 c -0.004 -0.18 -0.137 -0.324 -0.301 -0.324 c -0.168 0 -0.301 0.145 -0.305 0.324 l -0.188 7.336 l 0.188 3.363 c 0.012 0.18 0.137 0.324 0.305 0.324 c 0.164 0 0.297 -0.141 0.305 -0.324 m 15.516 -7.949 c -0.504 0 -0.988 0.109 -1.426 0.305 c -0.293 -3.574 -3.082 -6.379 -6.484 -6.379 c -0.832 0 -1.645 0.176 -2.359 0.477 c -0.281 0.113 -0.355 0.234 -0.355 0.465 l 0 12.59 c 0 0.242 0.176 0.445 0.398 0.469 c 0.008 0 10.16 0 10.227 0 c 2.039 0 3.691 -1.777 3.691 -3.965 c 0 -2.191 -1.652 -3.969 -3.691 -3.969 m -11.816 -5.137 c -0.223 0 -0.402 0.195 -0.406 0.438 l -0.168 8.934 l 0.168 3.246 c 0.004 0.234 0.184 0.43 0.406 0.43 c 0.223 0 0.402 -0.195 0.406 -0.434 l 0.18 -3.246 l -0.18 -8.934 c -0.004 -0.242 -0.184 -0.438 -0.406 -0.438 m 0 0.004" fill="#f9f9f9"/></g></g></g></g><g><g transform="translate(0,-1004.3622)"><path d="m 1 1043.36 0 4 c 0 2.216 1.784 4 4 4 l 38 0 c 2.216 0 4 -1.784 4 -4 l 0 -4 c 0 2.216 -1.784 4 -4 4 l -38 0 c -2.216 0 -4 -1.784 -4 -4 z" opacity="0.1"/></g></g></svg>
